icons/op-file-presentation-24.svg

<svg width="24" height="24" viewBox="0 0 24 24" fill="none" xmlns="http://www.w3.org/2000/svg">
<path d="M8.1145 16.5H15.7939V17.4688H8.1145V16.5ZM8.14504 12.5H14.8244V13.5H11.4847H8.14504V12.5ZM18 7.6875L14.3969 4H6V20H18V7.6875ZM7.40458 18.5625V5.4375H13.8168L16.5954 8.3125V18.5625H7.40458Z" fill="black"/>
<path d="M9.17696 12.5H8.1145V17.4688H9.17696V12.5Z" fill="black"/>
<path d="M15.7939 12.5H14.7314V17.4688H15.7939V12.5Z" fill="black"/>
</svg>

<svg xmlns="http://www.w3.org/2000/svg" width="24" height="24" viewBox="0 0 24 24"><path d="M8.114 16.5h7.68v.969h-7.68V16.5Zm.031-4h6.679v1H8.145v-1ZM18 7.688 14.397 4H6v16h12V7.688ZM7.405 18.562V5.438h6.412l2.778 2.874v10.25h-9.19Z"/><path d="M9.177 12.5H8.114v4.969h1.063V12.5Zm6.617 0h-1.063v4.969h1.063V12.5Z"/></svg>
